localPackages/DesignSystem/Sources/DesignSystem/Resources/Assets.xcassets/IconSet/ic-eye.imageset/ic-eye.svg

<svg width="24" height="24" viewBox="0 0 24 24" fill="none" xmlns="http://www.w3.org/2000/svg">
<g id="ic-eye">
<path id="Icon" fill-rule="evenodd" clip-rule="evenodd" d="M12 18C8.72096 18 5.28541 16.1086 3.01928 12C5.28541 7.89141 8.72096 6.00003 12 6C15.2791 5.99997 18.7146 7.89125 20.9807 12C18.7146 16.1087 15.2791 18 12 18ZM22.3346 11.3492C17.3553 2.21677 6.6447 2.2171 1.66544 11.3492C1.44485 11.7537 1.44485 12.2463 1.66544 12.6508C6.6447 21.7829 17.3553 21.7832 22.3346 12.6508C22.5551 12.2462 22.5551 11.7538 22.3346 11.3492ZM12 9C12 10.6569 10.6569 12 9 12C8.46049 12 7.95425 11.8576 7.51681 11.6083C7.50568 11.7374 7.5 11.868 7.5 12C7.5 14.4853 9.51472 16.5 12 16.5C14.4853 16.5 16.5 14.4853 16.5 12C16.5 9.51472 14.4853 7.5 12 7.5C11.868 7.5 11.7374 7.50568 11.6083 7.51681C11.8576 7.95425 12 8.46049 12 9Z" fill="#0F0F0F"/>
</g>
</svg>

<svg xmlns="http://www.w3.org/2000/svg" width="24" height="24" viewBox="0 0 24 24">
  <g class="ic-eye">
    <path fill-rule="evenodd" d="M12 18c-3.279 0-6.715-1.891-8.98-6C5.284 7.891 8.72 6 12 6c3.28 0 6.715 1.891 8.98 6-2.265 4.109-5.7 6-8.98 6Zm10.335-6.65c-4.98-9.133-15.69-9.133-20.67 0-.22.404-.22.896 0 1.3 4.98 9.133 15.69 9.133 20.67 0 .22-.404.22-.896 0-1.3ZM12 9a3 3 0 0 1-4.483 2.608 4.5 4.5 0 1 0 4.091-4.091c.25.437.392.943.392 1.483Z" class="Icon"/>
  </g>
</svg>
